communes/735.svg

<?xml version="1.0" encoding="UTF-8" standalone="no"?>
<svg
   xmlns:dc="http://purl.org/dc/elements/1.1/"
   xmlns:cc="http://web.resource.org/cc/"
   xmlns:rdf="http://www.w3.org/1999/02/22-rdf-syntax-ns#"
   xmlns:svg="http://www.w3.org/2000/svg"
   xmlns="http://www.w3.org/2000/svg"
   xmlns:xlink="http://www.w3.org/1999/xlink"
   xmlns:sodipodi="http://sodipodi.sourceforge.net/DTD/sodipodi-0.dtd"
   xmlns:inkscape="http://www.inkscape.org/namespaces/inkscape"
   height="763"
   width="603"
   version="1.0"
   id="svg20"
   sodipodi:version="0.32"
   inkscape:version="0.44.1"
   sodipodi:docname="Epsach.svg"
   sodipodi:docbase="F:\Mis Documentos\Mis imágenes\Encyclopédie\Escudos de Suiza">
  <metadata
     id="metadata31">
    <rdf:RDF>
      <cc:Work
         rdf:about="">
        <dc:format>image/svg+xml</dc:format>
        <dc:type
           rdf:resource="http://purl.org/dc/dcmitype/StillImage" />
        <dc:date>07-AUG-2006</dc:date>
        <dc:creator>
          <cc:Agent>
            <dc:title>Jérôme BLUM (wagner51)</dc:title>
          </cc:Agent>
        </dc:creator>
        <cc:license
           rdf:resource="http://creativecommons.org/licenses/GPL/2.0/" />
        <dc:coverage />
        <dc:description>Gabarit pour le Projet:Blasons de WIkipédia</dc:description>
        <dc:subject>
          <rdf:Bag>
            <rdf:li>blason suisse modèle gabarit projet blasons</rdf:li>
          </rdf:Bag>
        </dc:subject>
        <dc:language>fr</dc:language>
        <dc:title>Gabrit d'un blason suisse</dc:title>
      </cc:Work>
      <cc:License
         rdf:about="http://creativecommons.org/licenses/GPL/2.0/">
        <cc:permits
           rdf:resource="http://web.resource.org/cc/Reproduction" />
        <cc:permits
           rdf:resource="http://web.resource.org/cc/Distribution" />
        <cc:requires
           rdf:resource="http://web.resource.org/cc/Notice" />
        <cc:permits
           rdf:resource="http://web.resource.org/cc/DerivativeWorks" />
        <cc:requires
           rdf:resource="http://web.resource.org/cc/ShareAlike" />
        <cc:requires
           rdf:resource="http://web.resource.org/cc/SourceCode" />
      </cc:License>
    </rdf:RDF>
  </metadata>
  <defs
     id="defs29">
    <linearGradient
       id="linearGradient2893">
      <stop
         style="stop-color:#ffffff;stop-opacity:0.3137255;"
         offset="0"
         id="stop2895" />
      <stop
         id="stop2897"
         offset="0.19"
         style="stop-color:#ffffff;stop-opacity:0.25098041;" />
      <stop
         style="stop-color:#6b6b6b;stop-opacity:0.1254902;"
         offset="0.60000002"
         id="stop2901" />
      <stop
         style="stop-color:#000000;stop-opacity:0.1254902;"
         offset="1"
         id="stop2899" />
    </linearGradient>
    <linearGradient
       id="linearGradient2955">
      <stop
         style="stop-color:white;stop-opacity:0;"
         offset="0"
         id="stop2965" />
      <stop
         style="stop-color:black;stop-opacity:0.64583331;"
         offset="1"
         id="stop2959" />
    </linearGradient>
    <radialGradient
       inkscape:collect="always"
       xlink:href="#linearGradient2893"
       id="radialGradient3236"
       gradientUnits="userSpaceOnUse"
       gradientTransform="matrix(1.215027,1.531577e-24,1.464684e-23,1.266667,-839.1924,-490.4894)"
       cx="858.04236"
       cy="579.93323"
       fx="858.04236"
       fy="579.93323"
       r="300" />
  </defs>
  <sodipodi:namedview
     inkscape:window-height="682"
     inkscape:window-width="1024"
     inkscape:pageshadow="2"
     inkscape:pageopacity="0.0"
     guidetolerance="10.0"
     gridtolerance="10.0"
     objecttolerance="10.0"
     borderopacity="1.0"
     bordercolor="#666666"
     pagecolor="#ffffff"
     id="base"
     inkscape:zoom="0.48301887"
     inkscape:cx="685.927"
     inkscape:cy="480.48299"
     inkscape:window-x="-4"
     inkscape:window-y="-4"
     inkscape:current-layer="layer2"
     showgrid="true" />
  <desc
     id="desc22">Coat of Arms of Canton of Freiburg (Fribourg)</desc>
  <g
     inkscape:groupmode="layer"
     id="layer1"
     inkscape:label="Fond écu"
     sodipodi:insensitive="true">
    <path
       id="path1899"
       d="M 1.5,1.49998 L 1.5,460.3679 C 1.5,626.6785 135.81456,761.5 301.49999,761.5 C 467.18543,761.5 601.5,626.6785 601.5,460.3679 L 601.5,1.49998 L 1.5,1.49998 z "
       style="fill:#e20909;fill-opacity:1" />
    <path
       style="opacity:1;fill:white;fill-opacity:1;fill-rule:evenodd;stroke:black;stroke-width:2.99577618;stroke-linecap:square;stroke-linejoin:miter;stroke-miterlimit:4;stroke-dasharray:none;stroke-opacity:1"
       d="M 301.5,1.5 L 301.5,761.5 C 467.18546,761.5 601.5,626.6856 601.5,460.375 L 601.5,1.5 L 301.5,1.5 z "
       id="rect8181" />
  </g>
  <g
     inkscape:groupmode="layer"
     id="layer2"
     inkscape:label="Meubles"
     sodipodi:insensitive="true">
    <g
       id="g9080">
      <g
         transform="matrix(4.276602,0,0,4.276602,-2757.175,-1603.237)"
         id="g8165">
        <path
           style="opacity:1;fill:#e20909;fill-opacity:1;fill-rule:evenodd;stroke:black;stroke-width:0.89300847;stroke-linecap:square;stroke-linejoin:miter;stroke-miterlimit:4;stroke-dasharray:none;stroke-opacity:1"
           d="M 750,380.53125 C 737.03959,380.53125 726.53127,391.03961 726.53125,404 C 726.53125,416.9604 737.03961,427.46874 750,427.46875 C 762.96041,427.46875 773.46876,416.96041 773.46875,404 C 773.46875,391.0396 762.96042,380.53125 750,380.53125 z M 750.5,395.1875 C 755.09011,395.18751 758.8125,398.90986 758.8125,403.5 C 758.81252,408.09015 755.09014,411.8125 750.5,411.8125 C 745.90984,411.81249 742.1875,408.09014 742.1875,403.5 C 742.1875,398.90987 745.90986,395.1875 750.5,395.1875 z "
           id="path1921" />
        <path
           style="opacity:1;fill:#e20909;fill-opacity:1;fill-rule:evenodd;stroke:black;stroke-width:0.89300847;stroke-linecap:square;stroke-linejoin:miter;stroke-miterlimit:4;stroke-dasharray:none;stroke-opacity:1"
           d="M 750,431.53125 C 737.03959,431.53125 726.53127,442.03959 726.53125,455 C 726.53125,467.9604 737.03961,478.46875 750,478.46875 C 762.96041,478.46875 773.46876,467.96039 773.46875,455 C 773.46875,442.0396 762.96042,431.53126 750,431.53125 z M 750.5,446.1875 C 755.09011,446.18751 758.8125,449.90986 758.8125,454.5 C 758.81252,459.09015 755.09014,462.8125 750.5,462.8125 C 745.90984,462.81249 742.1875,459.09014 742.1875,454.5 C 742.1875,449.90987 745.90986,446.1875 750.5,446.1875 z "
           id="path2810" />
        <path
           style="opacity:1;fill:#e20909;fill-opacity:1;fill-rule:evenodd;stroke:black;stroke-width:0.89300847;stroke-linecap:square;stroke-linejoin:miter;stroke-miterlimit:4;stroke-dasharray:none;stroke-opacity:1"
           d="M 750,482.53125 C 737.03959,482.53125 726.53127,493.03959 726.53125,506 C 726.53125,518.9604 737.03961,529.46872 750,529.46875 C 762.96041,529.46875 773.46876,518.96039 773.46875,506 C 773.46875,493.0396 762.96042,482.53126 750,482.53125 z M 750.5,497.1875 C 755.09011,497.18751 758.8125,500.90986 758.8125,505.5 C 758.81252,510.09015 755.09014,513.8125 750.5,513.8125 C 745.90984,513.81252 742.1875,510.09014 742.1875,505.5 C 742.1875,500.90987 745.90986,497.1875 750.5,497.1875 z "
           id="path2812" />
      </g>
      <g
         transform="matrix(4.276602,0,0,4.276602,-2749.726,-1603.237)"
         id="g6389">
        <path
           style="fill:white;fill-opacity:1;fill-rule:evenodd;stroke:black;stroke-width:1px;stroke-linecap:butt;stroke-linejoin:miter;stroke-opacity:1"
           d="M 668.07859,411.71906 C 667.93468,413.71337 668.30313,415.43777 668.10724,417.42749 C 665.14407,447.52683 663.68304,477.90066 664.26803,508 L 697.56188,508 C 697.60776,477.7391 695.32692,447.48312 693.23769,417.44337 C 693.09663,415.41514 693.46442,413.658 693.35307,411.62757 C 700.00294,407.49126 700.44499,401.5997 700.91495,395.56188 L 659.9085,395.83637 C 660.16904,401.41075 659.82927,407.10262 668.07859,411.71906 z "
           id="path3729"
           sodipodi:nodetypes="csccscccc" />
        <rect
           style="opacity:1;fill:white;fill-opacity:1;fill-rule:evenodd;stroke:black;stroke-width:1.09673083;stroke-linecap:square;stroke-linejoin:miter;stroke-miterlimit:4;stroke-dasharray:none;stroke-opacity:1"
           id="rect3727"
           width="24.813494"
           height="5.9032631"
           x="668.21844"
           y="411.54837" />
        <rect
           style="opacity:1;fill:white;fill-opacity:1;fill-rule:evenodd;stroke:black;stroke-width:1.19825482;stroke-linecap:square;stroke-linejoin:miter;stroke-miterlimit:4;stroke-dasharray:none;stroke-opacity:1"
           id="rect3723"
           width="45.801743"
           height="10.801736"
           x="657.59912"
           y="386.59915" />
        <rect
           style="opacity:1;fill:white;fill-opacity:1;fill-rule:evenodd;stroke:black;stroke-width:1.08199561;stroke-linecap:square;stroke-linejoin:miter;stroke-miterlimit:4;stroke-dasharray:none;stroke-opacity:1"
           id="rect3725"
           width="45.569305"
           height="16.918028"
           x="658.54095"
           y="506.54099" />
      </g>
    </g>
  </g>
  <g
     inkscape:groupmode="layer"
     id="layer3"
     inkscape:label="Reflet final"
     style="display:inline"
     sodipodi:insensitive="true">
    <path
       style="fill:url(#radialGradient3236);fill-opacity:1"
       d="M 1.5,1.5 L 1.5,460.3679 C 1.5,626.67854 135.81454,761.5 301.49993,761.5 C 467.1854,761.5 601.5,626.67854 601.5,460.3679 L 601.5,1.5 L 1.5,1.5 z "
       id="path2346" />
  </g>
  <g
     inkscape:groupmode="layer"
     id="layer4"
     inkscape:label="Contour final"
     style="display:inline"
     sodipodi:insensitive="true">
    <path
       style="fill:none;fill-opacity:1;stroke:black;stroke-width:3;stroke-miterlimit:4;stroke-dasharray:none;stroke-opacity:1"
       d="M 1.5,1.5 L 1.5,460.36794 C 1.5,626.67854 135.81454,761.5 301.49993,761.5 C 467.1854,761.5 601.5,626.67854 601.5,460.36794 L 601.5,1.5 L 1.5,1.5 z "
       id="path3239" />
  </g>
</svg>

<?xml version="1.0" encoding="UTF-8"?>
<svg version="1.0" viewBox="0 0 603 763" xmlns="http://www.w3.org/2000/svg" xmlns:cc="http://web.resource.org/cc/" xmlns:dc="http://purl.org/dc/elements/1.1/" xmlns:rdf="http://www.w3.org/1999/02/22-rdf-syntax-ns#" xmlns:xlink="http://www.w3.org/1999/xlink">
<metadata>
<rdf:RDF>
<cc:Work rdf:about="">
<dc:format>image/svg+xml</dc:format>
<dc:type rdf:resource="http://purl.org/dc/dcmitype/StillImage"/>
<dc:date>07-AUG-2006</dc:date>
<dc:creator>
<cc:Agent>
<dc:title>Jérôme BLUM (wagner51)</dc:title>
</cc:Agent>
</dc:creator>
<cc:license rdf:resource="http://creativecommons.org/licenses/GPL/2.0/"/>
<dc:coverage/>
<dc:description>Gabarit pour le Projet:Blasons de WIkipédia</dc:description>
<dc:subject>
<rdf:Bag>
<rdf:li>blason suisse modèle gabarit projet blasons</rdf:li>
</rdf:Bag>
</dc:subject>
<dc:language>fr</dc:language>
<dc:title>Gabrit d'un blason suisse</dc:title>
</cc:Work>
<cc:License rdf:about="http://creativecommons.org/licenses/GPL/2.0/">
<cc:permits rdf:resource="http://web.resource.org/cc/Reproduction"/>
<cc:permits rdf:resource="http://web.resource.org/cc/Distribution"/>
<cc:requires rdf:resource="http://web.resource.org/cc/Notice"/>
<cc:permits rdf:resource="http://web.resource.org/cc/DerivativeWorks"/>
<cc:requires rdf:resource="http://web.resource.org/cc/ShareAlike"/>
<cc:requires rdf:resource="http://web.resource.org/cc/SourceCode"/>
</cc:License>
</rdf:RDF>
</metadata>
<defs>
<radialGradient id="a" cx="858.04" cy="579.93" r="300" gradientTransform="matrix(1.215 1.5316e-24 1.4647e-23 1.2667 -839.19 -490.49)" gradientUnits="userSpaceOnUse">
<stop stop-color="#fff" stop-opacity=".31373" offset="0"/>
<stop stop-color="#fff" stop-opacity=".25098" offset=".19"/>
<stop stop-color="#6b6b6b" stop-opacity=".12549" offset=".6"/>
<stop stop-opacity=".12549" offset="1"/>
</radialGradient>
</defs>
<desc>Coat of Arms of Canton of Freiburg (Fribourg)</desc>
<g>
<path d="m1.5 1.5v458.87c0 166.31 134.31 301.13 300 301.13 165.69 0 300-134.82 300-301.13v-458.87h-600z" fill="#e20909"/>
<path d="m301.5 1.5v760c165.69 0 300-134.81 300-301.12v-458.88h-300z" fill="#fff" fill-rule="evenodd" stroke="#000" stroke-linecap="square" stroke-width="2.9958"/>
</g>
<g fill-rule="evenodd" stroke="#000">
<g transform="matrix(4.2766 0 0 4.2766 -2757.2 -1603.2)" fill="#e20909" stroke-linecap="square" stroke-width=".89301">
<path d="m750 380.53c-12.96 0-23.469 10.508-23.469 23.469 0 12.96 10.508 23.469 23.469 23.469 12.96 0 23.469-10.508 23.469-23.469 0-12.96-10.508-23.469-23.469-23.469zm0.5 14.656c4.5901 1e-5 8.3125 3.7224 8.3125 8.3125 2e-5 4.5902-3.7224 8.3125-8.3125 8.3125-4.5902-1e-5 -8.3125-3.7224-8.3125-8.3125 0-4.5901 3.7224-8.3125 8.3125-8.3125z"/>
<path d="m750 431.53c-12.96 0-23.469 10.508-23.469 23.469 0 12.96 10.508 23.469 23.469 23.469 12.96 0 23.469-10.508 23.469-23.469 0-12.96-10.508-23.469-23.469-23.469zm0.5 14.656c4.5901 1e-5 8.3125 3.7224 8.3125 8.3125 2e-5 4.5902-3.7224 8.3125-8.3125 8.3125-4.5902-1e-5 -8.3125-3.7224-8.3125-8.3125 0-4.5901 3.7224-8.3125 8.3125-8.3125z"/>
<path d="m750 482.53c-12.96 0-23.469 10.508-23.469 23.469 0 12.96 10.508 23.469 23.469 23.469 12.96 0 23.469-10.508 23.469-23.469 0-12.96-10.508-23.469-23.469-23.469zm0.5 14.656c4.5901 1e-5 8.3125 3.7224 8.3125 8.3125 2e-5 4.5902-3.7224 8.3125-8.3125 8.3125-4.5902 2e-5 -8.3125-3.7224-8.3125-8.3125 0-4.5901 3.7224-8.3125 8.3125-8.3125z"/>
</g>
<g transform="matrix(4.2766 0 0 4.2766 -2749.7 -1603.2)" fill="#fff">
<path d="m668.08 411.72c-0.14391 1.9943 0.22454 3.7187 0.02865 5.7084-2.9632 30.099-4.4242 60.473-3.8392 90.573h33.294c0.04588-30.261-2.235-60.517-4.3242-90.557-0.14106-2.0282 0.22673-3.7854 0.11538-5.8158 6.6499-4.1363 7.0919-10.028 7.5619-16.066l-41.006 0.27449c0.26054 5.5744-0.07923 11.266 8.1701 15.883z" stroke-width="1px"/>
<rect x="668.22" y="411.55" width="24.813" height="5.9033" stroke-linecap="square" stroke-width="1.0967"/>
<rect x="657.6" y="386.6" width="45.802" height="10.802" stroke-linecap="square" stroke-width="1.1983"/>
<rect x="658.54" y="506.54" width="45.569" height="16.918" stroke-linecap="square" stroke-width="1.082"/>
</g>
</g>
<g>
<path d="m1.5 1.5v458.87c0 166.31 134.31 301.13 300 301.13 165.69 0 300-134.82 300-301.13v-458.87h-600z" fill="url(#a)"/>
<path d="m1.5 1.5v458.87c0 166.31 134.31 301.13 300 301.13 165.69 0 300-134.82 300-301.13v-458.87h-600z" fill="none" stroke="#000" stroke-width="3"/>
</g>
</svg>
